!!!COM: Mozart
!!!OTL: 8 Variationen uber das Lied "Ein Weib ist das herrlichste Ding"
!!!Variation: Variation 5 b
**function	**harm	**kern	**kern
*	*	*clefG2	*clefG2
*	*	*k[b-]	*k[b-]
*M3/4	*M3/4	*M3/4	*M3/4
*F:	*F:	*F:	*F:
4T	F:maj	4c	4r
=242	=242	=242	=242
2.T	B-:maj/3	4A 4f	16r
.	.	.	(16cccLL
.	.	.	16ddd
.	.	.	16cccJJ
.	.	4c	16bb-LL
.	.	.	16ccc
.	.	.	16aa
.	.	.	16cccJJ
.	.	4A 4f	16ggLL
.	.	.	16ccc
.	.	.	16ff
.	.	.	16cccJJ
=243	=243	=243	=243
2.T	F:7	4c 4g	16eeLL
.	.	.	16bb-
.	.	.	16ccc
.	.	.	16bb-JJ
.	.	4c	16aaLL
.	.	.	16bb-
.	.	.	16gg
.	.	.	16bb-JJ
.	.	4c 4g	16ffLL
.	.	.	16bb-
.	.	.	16ee
.	.	.	16bb-JJ
=244	=244	=244	=244
4T	B-:maj	4f 4a	16gg#LL
.	.	.	16aa
.	.	.	16ccc
.	.	.	16aaJJ
4T	G:min	4d 4f	16eeLL
.	.	.	16ff
.	.	.	16aa
.	.	.	16ffJJ
4T	C:min/b3	4B- 4g	16cc#LL
.	.	.	16dd
.	.	.	16gg
.	.	.	16bb-JJ
=245	=245	=245	=245
*	*	*^	*
4T	B-:maj/5	(4f	2c	4aa
4T	F:maj	4e)	.	4gg)
*	*	*clefF4	*clefF4	*
4T	F:7/b7	4e	4B-	8.ccL
.	.	.	.	16ccJk
*	*	*	*v	*v
=246	=246	=246	=246
4T	B-:maj/3	4f 4A	(16ccLL
.	.	.	16ff
.	.	.	16ddd
.	.	.	16cccJJ
4T	F:7/5	4e 4G	16ccLL
.	.	.	16ee
.	.	.	16ccc
.	.	.	16bb-JJ
4T	B-:maj	4f 4F	16ccLL
.	.	.	16ff
.	.	.	16bb-
.	.	.	16aaJJ
*	*	*clefG2	*
=247	=247	=247	=247
*	*	*^	*
2P	E-:maj	8r	2.B-	16ddLL
.	.	.	.	16ddd
.	.	(8d	.	16ccc#
.	.	.	.	16dddJJ
.	.	8f#L	.	16cccLL
.	.	.	.	16ddd
.	.	8gJ	.	16bb-
.	.	.	.	16dddJJ
4P	C:min/b3	8aL	.	16aaLL
.	.	.	.	16ddd
.	.	8b-J)	.	16gg
.	.	.	.	16dddJJ
=248	=248	=248	=248	=248
2D	B-:maj/5	4a	4c	16ffLL
.	.	.	.	16aa
.	.	.	.	16ccc
.	.	.	.	16aaJJ
.	.	4r	4r	16ffLL
.	.	.	.	16aa
.	.	.	.	16cc
.	.	.	.	16ffJJ
*	*	*clefF4	*clefF4	*
4D	F:7	(8FL	4C	16aLL
.	.	.	.	16cc
.	.	8EJ)	.	16b-
.	.	.	.	16gJJ
*	*	*v	*v	*
=249	=249	=249	=249
2T	B-:maj	4F	4f)
.	.	4FF	4r
*-	*-	*-	*-
!!!EMD: Edited in humdrumR 0.7.0.3 on 2024-01-19
